webroot/img/new-desgin/university-icon.svg

<svg width="32" height="32" viewBox="0 0 32 32" fill="none" xmlns="http://www.w3.org/2000/svg">
<g id="Frame">
<g id="Group">
<path id="Vector" d="M31.4483 14.9747H24.3917V13.612C24.3916 13.5142 24.3654 13.4182 24.316 13.3339C24.2665 13.2495 24.1956 13.1799 24.1103 13.132L16.5517 8.88368V6.72092H18.0469V7.54299C18.0469 7.68932 18.105 7.82965 18.2085 7.93312C18.312 8.03659 18.4523 8.09471 18.5986 8.09471H23.1062C23.1948 8.09466 23.282 8.07329 23.3606 8.0324C23.4392 7.99151 23.5067 7.93231 23.5576 7.85981C23.6085 7.7873 23.6411 7.70361 23.6528 7.61582C23.6645 7.52802 23.6549 7.4387 23.6248 7.3554L23.1724 6.06989L23.6303 4.81196C23.6605 4.72866 23.6701 4.63933 23.6584 4.55153C23.6467 4.46373 23.614 4.38004 23.5632 4.30752C23.5123 4.23501 23.4447 4.17581 23.3661 4.13493C23.2876 4.09405 23.2003 4.07268 23.1117 4.07265H21.0593V3.27265C21.0593 3.12632 21.0012 2.98599 20.8977 2.88252C20.7942 2.77905 20.6539 2.72092 20.5076 2.72092H16.5517V2.04782C16.5517 1.90149 16.4936 1.76116 16.3901 1.65769C16.2867 1.55422 16.1463 1.49609 16 1.49609C15.8537 1.49609 15.7133 1.55422 15.6099 1.65769C15.5064 1.76116 15.4483 1.90149 15.4483 2.04782V8.88368L7.88966 13.1264C7.80443 13.1743 7.73347 13.244 7.68403 13.3284C7.63459 13.4127 7.60844 13.5087 7.60828 13.6064V14.9692H0.551724C0.405398 14.9692 0.265065 15.0273 0.161596 15.1308C0.0581279 15.2343 0 15.3746 0 15.5209L0 29.954C0 30.1004 0.0581279 30.2407 0.161596 30.3442C0.265065 30.4476 0.405398 30.5058 0.551724 30.5058H31.4483C31.5946 30.5058 31.7349 30.4476 31.8384 30.3442C31.9419 30.2407 32 30.1004 32 29.954V15.5264C32 15.3801 31.9419 15.2398 31.8384 15.1363C31.7349 15.0328 31.5946 14.9747 31.4483 14.9747ZM21.0593 6.1692L21.0372 6.14713V5.19816H22.2952L22.069 5.90437C22.0238 6.02725 22.0238 6.16218 22.069 6.28506L22.3283 6.99127H19.1503V6.72092H20.5076C20.6539 6.72092 20.7942 6.66279 20.8977 6.55933C21.0012 6.45586 21.0593 6.31552 21.0593 6.1692ZM16.5517 3.82437H19.9559V5.61747H16.5517V3.82437ZM7.60828 29.4023H1.10345V16.0782H7.60828V29.4023ZM15.4483 29.4023H12.5517V23.1016H15.4483V29.4023ZM19.4483 29.4023H16.5517V23.1016H19.4483V29.4023ZM23.3103 29.4023H20.5517V22.5499C20.5517 22.4036 20.4936 22.2632 20.3901 22.1598C20.2867 22.0563 20.1463 21.9982 20 21.9982H12C11.8537 21.9982 11.7133 22.0563 11.6099 22.1598C11.5064 22.2632 11.4483 22.4036 11.4483 22.5499V29.4023H8.68966V13.954L16 9.83816L23.2883 13.932L23.3103 15.5209V29.4023ZM30.8966 29.4023H24.3917V16.0782H30.8966V29.4023Z" fill="url(#paint0_linear_763_19553)"/>
<path id="Vector_2" d="M16.0005 11.5273C14.7228 11.5304 13.6888 12.5669 13.6888 13.8446C13.6918 15.1213 14.7292 16.1538 16.006 16.1508C17.2828 16.1478 18.3152 15.1103 18.3122 13.8336C18.3092 12.559 17.275 11.5273 16.0005 11.5273ZM16.0005 15.0473C15.3332 15.0443 14.7947 14.5009 14.7977 13.8336C14.8008 13.1706 15.3375 12.6338 16.0005 12.6308C16.6687 12.6338 17.2088 13.1764 17.2088 13.8446H17.2143C17.2112 14.5119 16.6678 15.0504 16.0005 15.0473ZM2.43359 17.2929H3.53704V19.4998H2.43359V17.2929ZM5.15359 17.2929H6.25704V19.4998H5.15359V17.2929ZM10.3674 17.2929H12.5743V18.3963H10.3674V17.2929ZM14.897 17.2929H17.1039V18.3963H14.897V17.2929ZM19.4267 17.2929H21.6336V18.3963H19.4267V17.2929ZM10.3674 19.8639H12.5743V20.9673H10.3674V19.8639ZM14.897 19.8639H17.1039V20.9673H14.897V19.8639ZM19.4267 19.8639H21.6336V20.9673H19.4267V19.8639ZM2.43359 21.6349H3.53704V23.8418H2.43359V21.6349ZM5.15359 21.6349H6.25704V23.8418H5.15359V21.6349ZM2.43359 25.9825H3.53704V28.1894H2.43359V25.9825ZM5.15359 25.9825H6.25704V28.1894H5.15359V25.9825ZM25.7439 17.2929H26.8474V19.4998H25.7439V17.2929ZM28.4639 17.2929H29.5674V19.4998H28.4639V17.2929ZM25.7439 21.6349H26.8474V23.8418H25.7439V21.6349ZM28.4639 21.6349H29.5674V23.8418H28.4639V21.6349ZM25.7439 25.9825H26.8474V28.1894H25.7439V25.9825ZM28.4639 25.9825H29.5674V28.1894H28.4639V25.9825Z" fill="url(#paint1_linear_763_19553)"/>
</g>
</g>
<defs>
<linearGradient id="paint0_linear_763_19553" x1="8.03524" y1="-14.3038" x2="60.8735" y2="3.63653" gradientUnits="userSpaceOnUse">
<stop stop-color="#0B4C97"/>
<stop offset="1" stop-color="#68B8E8"/>
</linearGradient>
<linearGradient id="paint1_linear_763_19553" x1="9.24693" y1="2.45247" x2="49.1815" y2="22.4697" gradientUnits="userSpaceOnUse">
<stop stop-color="#0B4C97"/>
<stop offset="1" stop-color="#68B8E8"/>
</linearGradient>
</defs>
</svg>

<svg width="32" height="32" fill="none" xmlns="http://www.w3.org/2000/svg"><path d="M31.448 14.975h-7.056v-1.363a.551.551 0 0 0-.282-.48l-7.558-4.248V6.72h1.495v.822a.552.552 0 0 0 .552.552h4.507a.552.552 0 0 0 .519-.74l-.453-1.285.458-1.258a.55.55 0 0 0-.518-.74h-2.053v-.8a.552.552 0 0 0-.551-.551h-3.956v-.673a.552.552 0 1 0-1.104 0v6.836L7.89 13.126a.551.551 0 0 0-.282.48v1.363H.552a.552.552 0 0 0-.552.552v14.433a.552.552 0 0 0 .552.552h30.896a.552.552 0 0 0 .552-.552V15.526a.552.552 0 0 0-.552-.551ZM21.06 6.169l-.022-.022v-.949h1.258l-.226.706a.551.551 0 0 0 0 .381l.26.706H19.15v-.27h1.358a.552.552 0 0 0 .551-.552Zm-4.507-2.345h3.404v1.793h-3.404V3.824ZM7.608 29.402H1.103V16.078h6.505v13.324Zm7.84 0h-2.896v-6.3h2.896v6.3Zm4 0h-2.896v-6.3h2.896v6.3Zm3.862 0h-2.758V22.55a.551.551 0 0 0-.552-.552h-8a.551.551 0 0 0-.552.552v6.852H8.69V13.954L16 9.838l7.288 4.094.022 1.589v13.881Zm7.587 0h-6.505V16.078h6.505v13.324Z" fill="url(#a)"/><path d="M16 11.527a2.312 2.312 0 1 0 0 4.624 2.312 2.312 0 0 0 0-4.624Zm0 3.52a1.208 1.208 0 0 1 0-2.416 1.214 1.214 0 0 1 1.209 1.214h.005a1.208 1.208 0 0 1-1.213 1.202ZM2.434 17.293h1.103V19.5H2.434v-2.207Zm2.72 0h1.103V19.5H5.154v-2.207Zm5.213 0h2.207v1.103h-2.207v-1.103Zm4.53 0h2.207v1.103h-2.207v-1.103Zm4.53 0h2.207v1.103h-2.207v-1.103Zm-9.06 2.57h2.207v1.104h-2.207v-1.103Zm4.53 0h2.207v1.104h-2.207v-1.103Zm4.53 0h2.207v1.104h-2.207v-1.103ZM2.434 21.636h1.103v2.207H2.434v-2.207Zm2.72 0h1.103v2.207H5.154v-2.207Zm-2.72 4.348h1.103v2.206H2.434v-2.206Zm2.72 0h1.103v2.206H5.154v-2.206Zm20.59-8.69h1.103V19.5h-1.103v-2.207Zm2.72 0h1.103V19.5h-1.103v-2.207Zm-2.72 4.342h1.103v2.207h-1.103v-2.207Zm2.72 0h1.103v2.207h-1.103v-2.207Zm-2.72 4.348h1.103v2.206h-1.103v-2.206Zm2.72 0h1.103v2.206h-1.103v-2.206Z" fill="url(#b)"/><defs><linearGradient id="a" x1="8.035" y1="-14.304" x2="60.873" y2="3.637" gradientUnits="userSpaceOnUse"><stop stop-color="#0B4C97"/><stop offset="1" stop-color="#68B8E8"/></linearGradient><linearGradient id="b" x1="9.247" y1="2.452" x2="49.181" y2="22.47" gradientUnits="userSpaceOnUse"><stop stop-color="#0B4C97"/><stop offset="1" stop-color="#68B8E8"/></linearGradient></defs></svg>
